X:1
T:Contagem, 99.96 D
T:Contagem, 99.96 D
T:Benjamin Carl Unseld, 1881
T:Public Domain Courtesy of the Cyber Hymnal™
C:Benjamin Carl Unseld, 1881
Z:Public Domain
Z:Courtesy of the Cyber Hymnal™
%%score ( 1 2 ) 3
L:1/8
Q:1/4=105
M:4/4
K:G
V:1 treble 
V:2 treble 
V:3 bass 
V:1
 [DG]2 [DG]>[DA] [GB]2 [Gd]2 | [DG]2 [GB]>[GB] [FA]4 | [DF]2 [DF]>[DG] [FA]2 [Fc]2 | %3
 [Ac]2 [GB]>[FA] [GB]4 | [DG]2 [DG]>[DA] [GB]2 [Gd]2 | [DG]2 [GB]>[GB] [FA]4 | %6
 [DF]2 [DF]>[DG] [FA]2 [FB]2 | G6 z2 | [Gd]2 [Gd]2 [GB]3 [Gd] | [Ge][Gd][Gd][GB] [FA]4 | %10
 [FA]2 [FA]2 [Fd]3 [FA] | [Ac][GB][GB][FA] G4 | [DG]2 [DG]>[DA] [GB]2 [Gd]2 | %13
 [DG]2 [GB]>[GB] [FA]4 | [DF]2 [DF]>[DG] [FA]2 [FB]2 | G8 |] %16
V:2
 x8 | x8 | x8 | x8 | x8 | x8 | x8 | G6 x2 | x8 | x8 | x8 | x4 G4 | x8 | x8 | x8 | G8 |] %16
V:3
 [G,B,]2 [G,B,]>[G,C] [G,D]2 [G,B,]2 | [G,B,]2 [G,D]>[G,D] [D,D]4 | %2
 [D,A,]2 [D,A,]>[D,B,] [D,C]2 [D,D]2 | [D,D]2 [D,D]>[D,D] [G,D]4 | %4
 [G,B,]2 [G,B,]>[G,C] [G,D]2 [G,B,]2 | [G,B,]2 [G,D]>[G,D] [D,D]4 | %6
 [D,A,]2 [D,A,]>[D,B,] [D,C]2 [D,D]2 | [G,B,]6 z2 | [G,B,]2 [G,B,]2 [G,D]3 [G,B,] | %9
 [G,C][G,B,][G,B,][G,D] [D,D]4 | [D,D]2 [D,D]2 [D,A,]3 [D,D] | [D,D][D,D][D,D][D,C] [G,B,]4 | %12
 [G,B,]2 [G,B,]>[G,C] [G,D]2 [G,B,]2 | [G,B,]2 [G,D]>[G,D] [D,D]4 | %14
 [D,A,]2 [D,A,]>[D,B,] [D,C]2 [D,D]2 | [G,B,]8 |] %16

